!!!OTL: WO BIST DU DENN GEWESEN
!!!ARE: Europa, Mitteleuropa, Deutschland, Saarland
!!!SCT: K2444A
!!!YEM: Copyright 1995, estate of Helmut Schaffrath.
**kern
*ICvox
*Ivox
*M3/4
*k[f#]
*G:
{8dd
8dd
=1
4dd
4b
8b
8b
=2
4b
4g}
{4g
=3
4f#
4a
4ee
=4
4ee
4dd}
{8dd
8dd
=5
4dd
4b
8b
8b
=6
4b
4g}
{4b
=7
4cc
4b
4a
=8
4g
4r}
==
!!!AGN: Kinder - Lied, Tanz -, Lauf - Spiel
!!!ONB: ESAC (Essen Associative Code) Database: KINDER
!!!AMT: simple triple
!!!AIN: vox
!!!EED: Helmut Schaffrath
!!!EEV: 1.0
*-
